X: 342
T: Mahmoud
%R: reel
Z: 2014 John Chambers <jc:trillian.mit.edu>
B: Preston "Twenty four Country Dances for the Year 1798" p.151 #2
F: http://www.vwml.org/browse/browse-collections-dance-tune-books/browse-prestons1798# 2014-8-10
M: C|
L: 1/8
K: C
|:\
c2ec BdGB | c2ec BdGB |\
c2cG cege | dcBA G2G2 :|
|:\
Gceg gfed | GBdf fedc |\
Gceg Acfa | gfed c2c2 :|
|:\
E2F2 G2zc | GFED {F}E2DC |\
E2F2 G2zc | GFED C2C2 :|
% - - - - - - - - - - - - - - - - - - - - - - - - -
%%begintext align
%% 1st & 2d Cu: take both hands with their part.rs & lead
%% into each others places .| foot it & lead back to proper
%% places :| lead down two Cu: up again & cast off :|: hands
%% 4 half round at top & back again :||
%%endtext
% - - - - - - - - - - - - - - - - - - - - - - - - -

%%sep 1 1 500
%%sep 1 1 500
